!!!OTL: Tochter als Faehnrich
!!!OTL-incipit:Es reist' eine Jungfrau zum Tor hinaus:
!!!ARE: Europa, Mitteleuropa, Deutschland / France, Lothringen, Hommert
!!!YOR: 5, S. 89
!!    1913 aufgezeichnet
!!!SCT: Q0096A
!!!TXL: @@DE
!!!YEM: Copyright 1995, estate of Helmut Schaffrath.
**kern	**text
*ICvox	*
*M4/4	*
*k[f#]	*
*G:	*
{4d	1._Es
=1	=1
4g	reist'
4d	eine_Jung-
4g	-frau
(8aL	ʒum
8ccJ)	.
=2	=2
4b	Tor
(8aL	hin-
8gJ)	.
4g}	-aus
{8gL	'Ei,
8bJ	be-
=3	=3
4a	-hüt'
4g	dich
4a	Gott,
(8bL	du
8ddJ)	.
=4	=4
8.ddL	a-
16ddJ	-de-
8ccL	-li-
8bJ	-ges
4a}	Haus,
{8.gL	ei,
16gJ	be-
=5	=5
4.a	-hüt'
8b	dich
4a	Gott,
4g	du
=6	=6
4a	schnö-
(8bL	-de
8ccJ)	.
4dd}	Welt,
{8ddL	ei,
8ddJ	be-
=7	=7
4.g	-hüt'
8a	dich
4g	Gott,
4f#	reis'
=8	=8
4e	ü-
4e	-bers
4d}	Feld,
{8dL	ei,
8dJ	be-
=9	=9
4g	-hüt'
4f#	dich
4g	Gott,
(8aL	du
8ccJ)	.
=10	=10
4b	Laub
8aL	und
8aJ	du
4g}	Staub!'
==	==
!!!AGN: Ballade, Frau in Maennerkleidung, Soldat
!!!ONB: ESAC (Essen Associative Code) Database: BALLADE
!!!AMT: simple quadruple
!!!AIN: vox
!!!EED: Helmut Schaffrath
!!!EEV: 1.0
!!@@COMMENT:"A 52 601. Hommert (Lothringen). 1913.
!!Ahdruc mit geringſügigen Abweichungen
!!bei Pinck. Weisen 1. 91f."
!!@@END:
!!!source: Deutsche Volkslieder mit ihren Melodien Balladen. Herausgegeben vom Deutschen Volksliedarchiv. Fünfter Teil. Freiburg/Breisgau 1965.
!!!page: 89
!!!ENC: Anna Maria Matuszewska
!!!EEV: 2025/02/27
*-	*-
